!!!SOCIAL_FUNCTION:	songs connected with legends
!!!PDT:	1929
!!!OTL: No_43_I_Will_Toss_Up_the_Sticks.krn
!!!REG: Southwest
!!!LANG: Non-Tone
!!!LING_GROUP: Uto-Aztecan
**kern
*staff1
=1-
*clefF4
*k[f#]
*M2/4
4e\
8f#\L
8f#\J
=2||
*M3/4
2g\
8f#\L
8e\J
=3
4e\
4B\
4r
=4||
*M5/8
8e\L
8e\
8c\
8f#\
8e\J
=5||
*M3/4
2f#\
8e\L
8c\J
=6
4e\
4c\
4r
=7
4c\
4r
8f#\L
8e\J
=8
2f#\
8e\L
8c\J
=9
4e\
4c\
4r
=10||
*M2/4
2e\
=11||
*M3/4
4e\
8c\
8r
8f#\L
8e\J
=12
4e\
4c\
4e\
=13
2.e\
==
*-
